X: 306
T:Spainish Spy,The. JaW.305
M:2/4
Q:50
S:James Winder Ms, Lancashire, 1835-41
R:Country Dance
O:England
A:Wyresdale,Lancashire
N:Aye, - Warts An' All
H:1/8
Z:vmp.Chris Partington, Aug 2004
K:A
"As Written"e|A>A ((3A/B/c/) B/A/|B/A/B/c/ B/d/|\
A>A ((3A/B/c/) B/A/|EAA:|!
|:e|A/B/c/d/ e/f/e/d/|a/f/e/c/ a/f/e/c/|\
A/B/c/d/ e/f/e/d/|B/A/B/c/ B/d/|!
A/B/c/d/ e/f/e/c/|a/f/e/c/ a/f/e/c/|F2EA/B/|cAA:|]
